X:1     %Music
T:Sally Brown
B:Singing Together, Autumn 1965, BBC Publications
F:http://www.folkinfo.org/songs
M:2/2     %Meter
L:1/8     %
K:C
C3 E G2 cB |A2 G2 (EF) G2 |c4 d3 c |e2 d2 c4 |
w:Sal-ly Brown she's a bright mu-lat--ter, Way-ay-y, roll and go. 
e2 d2 c2 A2 |G2 E2 D C3 |G2 G2 GG G2 |D2 E2 C4 |]
w:She drinks rum and chews ter-bac-cer, Spend my mon-ey on Sal-ly Brown 